X: 32592
T: Planxty Monaghan
R: waltz
M: 3/4
K: Gmajor
|:D2|B3AB2|c3Bc2|d2g2f2|d4dc|
B3AB2|c2A2F2|G3 A GF|D4D2|
B3AB2|c3Bc2|d2g2f2|d4dc|
B3AB2|c2A2F2|G6|G4:|
|:D2|BAG2D2|cBA2D2|d3ed2|c3Bc2|
d3ed2|c3BA2|B2A2G2|A2F2D2|
BAG2D2|cBA2D2|d3ed2|c3Bc2|
d2g2f2|d3cA2|G6|G4:|

